src/img/icon/social/telegram.svg

<svg width="15" height="12" viewBox="0 0 15 12" fill="none" xmlns="http://www.w3.org/2000/svg">
<path fill-rule="evenodd" clip-rule="evenodd" d="M1.37663 5.21111C5.04816 3.61628 7.49636 2.56239 8.72124 2.04943C12.2187 0.594495 12.9415 0.342683 13.4171 0.333356C13.592 0.330592 13.7632 0.382777 13.9068 0.48257C14.0055 0.570571 14.0685 0.691676 14.084 0.822992C14.11 0.986392 14.1178 1.15217 14.1073 1.3173C13.9161 3.3085 13.0954 8.13963 12.6804 10.3687C12.5031 11.3013 12.1534 11.6278 11.8176 11.6604C11.0855 11.7303 10.5306 11.1941 9.82178 10.7277C8.71659 10.0003 8.08705 9.54794 7.02383 8.86244C5.77874 8.04638 6.58548 7.59402 7.29429 6.85722C7.48082 6.66603 10.7031 3.73752 10.7637 3.47171C10.7723 3.43228 10.7713 3.39136 10.7607 3.3524C10.7502 3.31345 10.7304 3.27761 10.7031 3.24789C10.6332 3.1826 10.5213 3.20591 10.442 3.2199C10.3627 3.23389 8.5767 4.41836 5.13522 6.73134C4.74302 7.03685 4.26553 7.21283 3.76887 7.23495C3.10042 7.15443 2.44333 6.99797 1.81032 6.76862C1.02223 6.51214 0.411337 6.37693 0.448643 5.94325C0.470405 5.69454 0.779729 5.45049 1.37663 5.21111Z" fill="#09A5F0"/>
</svg>

<svg xmlns="http://www.w3.org/2000/svg" width="15" height="12" fill="none" viewBox="0 0 15 12"><path fill="#09A5F0" fill-rule="evenodd" d="M1.377 5.211A759.058 759.058 0 0 1 8.72 2.05C12.22.594 12.941.343 13.417.333a.835.835 0 0 1 .49.15c.098.088.162.209.177.34.026.163.034.33.023.494-.19 1.992-1.012 6.823-1.427 9.052-.177.932-.527 1.259-.862 1.291-.732.07-1.287-.466-1.996-.932C8.717 10 8.087 9.548 7.024 8.862c-1.245-.816-.439-1.268.27-2.005.187-.191 3.41-3.12 3.47-3.385a.25.25 0 0 0-.06-.224c-.07-.065-.183-.042-.262-.028-.08.014-1.865 1.198-5.307 3.511-.392.306-.87.482-1.366.504a8.86 8.86 0 0 1-1.959-.466C1.022 6.512.411 6.377.45 5.943c.021-.248.33-.493.928-.732Z" clip-rule="evenodd"/></svg>
